src/assets/shuffles.svg

<svg width="44" height="78" viewBox="0 0 44 78" fill="none" xmlns="http://www.w3.org/2000/svg">
<path fill-rule="evenodd" clip-rule="evenodd" d="M18.6611 0.22448C17.0298 0.482398 14.9648 1.07882 13.4582 1.7272C11.2538 2.67584 8.60183 4.41073 8.1643 5.19043C7.86829 5.71769 8.15622 6.44376 8.76042 6.69406C9.27671 6.9078 9.36857 6.86636 11.3429 5.52818C15.7827 2.51878 21.5646 1.56191 26.9128 2.95143C34.2919 4.86868 39.871 10.9899 41.1359 18.5562C41.6554 21.6638 41.2526 25.7425 40.1434 28.6054C37.908 34.3743 32.8562 38.9027 26.941 40.4396C17.8882 42.7916 8.60076 38.4719 4.49997 30.0019C3.27208 27.4658 2.66453 24.7224 2.6656 21.7173C2.66697 17.5429 3.83194 13.856 6.23212 10.4298C6.73287 9.71473 7.08296 9.05295 7.08296 8.82078C7.08296 8.25284 6.56301 7.75971 5.9643 7.75971C5.34959 7.75971 4.8368 8.26716 3.73947 9.96168C2.2107 12.3219 1.10926 15.1319 0.597382 17.9769C0.245316 19.9336 0.246687 23.3561 0.600277 25.3554C2.27027 34.7971 9.80976 41.9909 19.3742 43.2687C21.3589 43.534 24.7463 43.3627 26.7522 42.8958C35.3647 40.8913 41.8972 34.0183 43.4241 25.3554C43.7814 23.3289 43.7814 20.0694 43.4241 18.0429C41.7735 8.67819 34.285 1.46715 24.8475 0.154402C23.2794 -0.063602 20.2677 -0.0296293 18.6611 0.22448ZM19.7275 11.6529C18.4729 11.9223 16.5397 12.8792 15.4833 13.7537C13.0614 15.7584 11.7593 18.5367 11.7593 21.6992C11.7593 25.7116 13.8909 29.1268 17.5185 30.9263C23.3175 33.8027 30.309 30.5621 32.002 24.2128C32.3531 22.8958 32.3531 20.5025 32.002 19.1855C30.7695 14.5634 26.6558 11.394 21.9365 11.4307C21.2662 11.4359 20.2721 11.5359 19.7275 11.6529ZM20.5654 13.8468C16.705 14.6853 14.0908 17.8557 14.0908 21.6992C14.0908 25.1568 16.2329 28.1325 19.5346 29.2615C20.9781 29.7551 23.0472 29.7551 24.4907 29.2615C26.4689 28.5851 28.1452 27.1596 29.0381 25.3946C31.6877 20.1576 28.2018 14.0576 22.3976 13.7741C21.725 13.7413 20.9005 13.7739 20.5654 13.8468ZM20.3804 16.1983C17.0036 17.3005 15.3389 21.0503 16.8451 24.1618C17.3656 25.2367 18.4224 26.2839 19.5438 26.836C20.4761 27.295 20.6777 27.3359 22.0126 27.3359C23.3476 27.3359 23.5492 27.295 24.4815 26.836C27.3288 25.4343 28.5374 22.0403 27.1844 19.2452C26.664 18.1704 25.6054 17.1154 24.5018 16.5722C23.6741 16.1648 23.2983 16.0746 22.2648 16.0356C21.4979 16.0068 20.7767 16.0691 20.3804 16.1983ZM21.0626 18.4232C20.2484 18.6683 19.5569 19.2281 19.1134 20.0016C17.692 22.4798 19.7283 25.4812 22.5443 25.059C24.1084 24.8243 25.3642 23.3282 25.3642 21.6992C25.3642 19.4571 23.1724 17.7879 21.0626 18.4232ZM2.84384 40.5244C1.23037 41.3308 0.340684 42.7544 0.328191 44.5507C0.314633 46.4683 0.244555 46.3793 7.53816 53.693C13.589 59.7604 14.1101 60.3244 14.5769 61.3102L15.081 62.3749L15.132 65.2695C15.1794 67.9559 15.2059 68.1887 15.5013 68.5068C15.7547 68.7795 15.9855 68.8495 16.631 68.8495H17.4423V73.0887C17.4423 77.3228 17.4428 77.3281 17.7949 77.659C18.1379 77.9812 18.2533 77.9902 22.034 77.9902C25.8995 77.9902 25.9222 77.9883 26.2518 77.6376C26.5753 77.2931 26.583 77.1881 26.583 73.0673V68.8495H27.3943C28.0398 68.8495 28.2706 68.7795 28.524 68.5068C28.8194 68.1887 28.8459 67.9559 28.8933 65.2695L28.9443 62.3749L29.4354 61.3379C29.8497 60.4633 30.3366 59.8852 32.5458 57.6438C34.7853 55.3715 35.1649 54.9189 35.1649 54.5209C35.1649 53.9151 34.6892 53.4478 34.0545 53.4296C33.6033 53.4168 33.2897 53.6821 30.795 56.1878C29.2767 57.7126 28.0153 58.9023 27.9917 58.8314C27.7676 58.1594 26.5974 56.5781 25.6701 55.6941C24.5138 54.5919 22.6632 53.4628 22.0126 53.4628C21.3621 53.4628 19.5115 54.5919 18.3552 55.6941C17.4298 56.5761 16.2577 58.1593 16.0347 58.8282C15.9708 59.02 3.23582 46.219 2.93159 45.6572C2.36792 44.6161 2.74132 43.2716 3.76811 42.6457C4.32066 42.3087 5.25133 42.2488 5.76001 42.5175C5.94297 42.6141 8.44034 44.2604 11.3097 46.1756C18.5043 50.9781 18.7723 51.1015 22.0126 51.1015C25.2332 51.1015 25.4009 51.0247 32.5719 46.2657C37.9464 42.699 38.5429 42.3417 39.1227 42.3423C40.7179 42.3437 41.7806 43.9576 41.1974 45.493C41.1077 45.7288 39.9423 47.0213 38.6076 48.3651C36.386 50.6017 36.1806 50.8542 36.1806 51.3503C36.1806 52.014 36.607 52.4472 37.2601 52.4472C37.6605 52.4472 38.1 52.0739 40.3757 49.8009C43.2954 46.8848 43.675 46.3124 43.7052 44.7792C43.7417 42.9162 42.8489 41.3929 41.2281 40.554C40.4021 40.1264 40.1141 40.057 39.1762 40.0599C38.447 40.0622 37.8797 40.1565 37.4664 40.3442C37.1262 40.4987 34.48 42.2048 31.5859 44.1353C28.6919 46.0659 25.9722 47.8237 25.5423 48.0415C23.3484 49.1533 20.677 49.1533 18.4833 48.0418C18.0532 47.8238 15.3334 46.0659 12.4394 44.1353C9.54529 42.2048 6.89908 40.4987 6.5589 40.3442C6.14757 40.1574 5.57857 40.0622 4.86027 40.0599C3.95534 40.0572 3.62826 40.1325 2.84384 40.5244ZM20.9662 56.5207C19.4978 57.5012 18.5252 58.7735 17.8791 60.559C17.6105 61.3014 17.54 61.9121 17.48 64.0126L17.4071 66.5644H22.0126H26.6181L26.5453 64.0126C26.4853 61.9121 26.4148 61.3014 26.1462 60.559C25.5001 58.7735 24.5275 57.5012 23.0591 56.5207C22.5483 56.1794 22.0774 55.9003 22.0126 55.9003C21.9479 55.9003 21.477 56.1794 20.9662 56.5207ZM19.7275 72.2773V75.705H22.0126H24.2978V72.2773V68.8495H22.0126H19.7275V72.2773Z" fill="white"/>
</svg>

<svg xmlns="http://www.w3.org/2000/svg" width="44" height="78" fill="none" viewBox="0 0 44 78"><path fill="#fff" fill-rule="evenodd" d="M18.661.224c-1.631.258-3.696.855-5.203 1.503-2.204.949-4.856 2.684-5.294 3.463-.296.528-.008 1.254.596 1.504.517.214.609.172 2.583-1.166 4.44-3.01 10.222-3.966 15.57-2.577C34.292 4.87 39.87 10.99 41.136 18.556c.52 3.108.117 7.186-.993 10.05-2.235 5.768-7.287 10.297-13.202 11.834-9.053 2.352-18.34-1.968-22.441-10.438-1.228-2.536-1.835-5.28-1.834-8.285.001-4.174 1.166-7.861 3.566-11.287.5-.715.851-1.377.851-1.61 0-.567-.52-1.06-1.119-1.06-.614 0-1.127.507-2.225 2.202-1.528 2.36-2.63 5.17-3.142 8.015-.352 1.957-.35 5.38.003 7.378 1.67 9.442 9.21 16.636 18.774 17.914 1.985.265 5.372.094 7.378-.373 8.613-2.005 15.145-8.878 16.672-17.54.357-2.027.357-5.287 0-7.313A21.89 21.89 0 0 0 24.848.154c-1.569-.218-4.58-.184-6.187.07m1.066 11.429c-1.254.27-3.187 1.226-4.244 2.1-2.422 2.005-3.724 4.784-3.724 7.946 0 4.013 2.132 7.428 5.76 9.227 5.799 2.877 12.79-.364 14.483-6.713.351-1.317.351-3.71 0-5.027-1.233-4.623-5.346-7.792-10.066-7.755-.67.005-1.664.105-2.209.222m.838 2.194c-3.86.838-6.474 4.009-6.474 7.852 0 3.458 2.142 6.433 5.444 7.563 1.443.493 3.512.493 4.956 0 1.978-.677 3.654-2.102 4.547-3.867 2.65-5.237-.836-11.337-6.64-11.62-.673-.034-1.497-.001-1.833.072m-.185 2.351c-3.376 1.102-5.041 4.852-3.535 7.964.52 1.075 1.577 2.122 2.699 2.674.932.459 1.134.5 2.469.5s1.536-.041 2.468-.5c2.848-1.402 4.056-4.796 2.703-7.59-.52-1.076-1.579-2.13-2.682-2.674-.828-.407-1.204-.497-2.237-.536-.767-.03-1.488.033-1.885.162m.683 2.225c-.815.245-1.506.805-1.95 1.579-1.421 2.478.615 5.48 3.431 5.057 1.564-.235 2.82-1.73 2.82-3.36 0-2.242-2.192-3.911-4.301-3.276M2.843 40.524c-1.613.807-2.502 2.23-2.515 4.027-.013 1.917-.083 1.828 7.21 9.142 6.051 6.067 6.572 6.631 7.039 7.617l.504 1.065.051 2.894c.047 2.687.074 2.92.37 3.238.253.272.483.343 1.129.343h.811v4.239c0 4.234 0 4.24.353 4.57.343.322.458.331 4.239.331 3.866 0 3.888-.002 4.218-.352.323-.345.331-.45.331-4.57V68.85h.811c.646 0 .877-.07 1.13-.343.295-.318.322-.551.37-3.238l.05-2.894.491-1.037c.415-.875.902-1.453 3.11-3.694 2.24-2.273 2.62-2.725 2.62-3.123 0-.606-.476-1.073-1.11-1.091-.452-.013-.765.252-3.26 2.758-1.518 1.525-2.78 2.714-2.803 2.643-.224-.672-1.395-2.253-2.322-3.137-1.156-1.102-3.007-2.231-3.657-2.231s-2.501 1.129-3.658 2.231c-.925.882-2.097 2.465-2.32 3.134-.064.192-12.8-12.609-13.103-13.17-.564-1.042-.19-2.386.836-3.012.553-.337 1.483-.397 1.992-.129.183.097 2.68 1.743 5.55 3.659 7.194 4.802 7.462 4.926 10.703 4.926 3.22 0 3.388-.077 10.559-4.836 5.374-3.567 5.97-3.924 6.55-3.924 1.596.002 2.659 1.616 2.075 3.151-.09.236-1.255 1.528-2.59 2.872-2.221 2.237-2.426 2.49-2.426 2.985 0 .664.426 1.097 1.08 1.097.4 0 .839-.373 3.115-2.646 2.92-2.916 3.299-3.489 3.33-5.022.036-1.863-.857-3.386-2.478-4.225-.826-.428-1.114-.497-2.052-.494-.729.002-1.296.096-1.71.284-.34.155-2.986 1.86-5.88 3.791s-5.614 3.689-6.044 3.907a7.89 7.89 0 0 1-7.059 0c-.43-.218-3.15-1.976-6.044-3.907-2.894-1.93-5.54-3.636-5.88-3.79q-.618-.282-1.699-.285c-.905-.003-1.232.072-2.016.464m18.123 15.997c-1.468.98-2.44 2.252-3.087 4.038-.269.742-.339 1.353-.399 3.454l-.073 2.551h9.211l-.073-2.551c-.06-2.1-.13-2.712-.399-3.454-.646-1.785-1.619-3.058-3.087-4.038-.51-.342-.982-.62-1.046-.62s-.536.278-1.047.62m-1.239 15.756v3.428h4.571V68.85h-4.571z" clip-rule="evenodd"/></svg>
